symbols/web/night_shelter/materialsymbolsrounded/night_shelter_gradN25_40px.svg

<svg xmlns="http://www.w3.org/2000/svg" height="40" width="40"><path d="M9.542 34.75q-1.084 0-1.855-.771-.77-.771-.77-1.854V16.417q0-.625.271-1.188.27-.562.77-.937l10.459-7.834q.708-.5 1.583-.5t1.583.5l10.459 7.834q.5.375.77.937.271.563.271 1.188v15.708q0 1.083-.771 1.854-.77.771-1.854.771Zm0-2.625h20.916V16.417L20 8.583 9.542 16.417Zm3.916-4.667h13.084v1.625q0 .334.25.584.25.25.583.25.333 0 .583-.25.25-.25.25-.584v-5.75q0-1.333-.958-2.312-.958-.979-2.333-.979h-5.084q-.25 0-.437.208-.188.208-.188.458v5.084h-5.75V19.25q0-.333-.25-.583-.25-.25-.583-.25-.333 0-.583.25-.25.25-.25.583v9.833q0 .334.25.584.25.25.583.25.333 0 .583-.25.25-.25.25-.584Zm2.875-2.5q.834 0 1.438-.583t.604-1.458q0-.834-.604-1.438t-1.438-.604q-.875 0-1.479.604-.604.604-.604 1.438 0 .875.604 1.458t1.479.583Zm-6.791 7.167h20.916H9.542Z"/></svg>

<svg xmlns="http://www.w3.org/2000/svg" height="40" width="40"><path d="M9.542 34.75Q8.458 34.75 7.687 33.979Q6.917 33.208 6.917 32.125V16.417Q6.917 15.792 7.188 15.229Q7.458 14.667 7.958 14.292L18.417 6.458Q19.125 5.958 20 5.958Q20.875 5.958 21.583 6.458L32.042 14.292Q32.542 14.667 32.812 15.229Q33.083 15.792 33.083 16.417V32.125Q33.083 33.208 32.312 33.979Q31.542 34.75 30.458 34.75ZM9.542 32.125H30.458V16.417L20 8.583L9.542 16.417ZM13.458 27.458H26.542V29.083Q26.542 29.417 26.792 29.667Q27.042 29.917 27.375 29.917Q27.708 29.917 27.958 29.667Q28.208 29.417 28.208 29.083V23.333Q28.208 22 27.25 21.021Q26.292 20.042 24.917 20.042H19.833Q19.583 20.042 19.396 20.25Q19.208 20.458 19.208 20.708V25.792H13.458V19.25Q13.458 18.917 13.208 18.667Q12.958 18.417 12.625 18.417Q12.292 18.417 12.042 18.667Q11.792 18.917 11.792 19.25V29.083Q11.792 29.417 12.042 29.667Q12.292 29.917 12.625 29.917Q12.958 29.917 13.208 29.667Q13.458 29.417 13.458 29.083ZM16.333 24.958Q17.167 24.958 17.771 24.375Q18.375 23.792 18.375 22.917Q18.375 22.083 17.771 21.479Q17.167 20.875 16.333 20.875Q15.458 20.875 14.854 21.479Q14.25 22.083 14.25 22.917Q14.25 23.792 14.854 24.375Q15.458 24.958 16.333 24.958ZM9.542 32.125H20H30.458H9.542Z"/></svg>
